!!!!SEGMENT: pl-kk--kk-i-8--013_anonim--martyr-dei-venantius.krn
!!!cenid: 16xx:1154
!!!COM: Anonim
!!!COM-rism: pe30004985
!!!CDT:
!!!CNT:
!!!OTL: Martyr Dei Venantius
!!!PDT:
!!!AGN: Sacred
!!!SMS-siglum: PL-Kk
!!!SMS-shelfmark: Kk.I.8
!!!NIFC-rismID: 1001148538
!!!URL-scan: http://repozytorium.nifc.pl/skany/pl-kk-nut--i-8
!!!ONB-nifc: UWAGA: A (skan 0008, s.7v), T1 (0032, s.8v), T2 (0055, s.7v), B (0078, s.7v) Następny utwór: Salve virgo nobilis
!!!SMS-variant:
!!!SMS-altvar:
**kern	**text	**text	**text	**text	**text	**text	**text	**text	**text	**kern	**text	**text	**text	**text	**text	**text	**text	**text	**text	**kern	**text	**text	**text	**text	**text	**text	**text	**text	**text	**kern	**text	**text	**text	**text	**text	**text	**text	**text	**text
*part4	*part4	*part4	*part4	*part4	*part4	*part4	*part4	*part4	*part4	*part3	*part3	*part3	*part3	*part3	*part3	*part3	*part3	*part3	*part3	*part2	*part2	*part2	*part2	*part2	*part2	*part2	*part2	*part2	*part2	*part1	*part1	*part1	*part1	*part1	*part1	*part1	*part1	*part1	*part1
*staff4	*staff4	*staff4	*staff4	*staff4	*staff4	*staff4	*staff4	*staff4	*staff4	*staff3	*staff3	*staff3	*staff3	*staff3	*staff3	*staff3	*staff3	*staff3	*staff3	*staff2	*staff2	*staff2	*staff2	*staff2	*staff2	*staff2	*staff2	*staff2	*staff2	*staff1	*staff1	*staff1	*staff1	*staff1	*staff1	*staff1	*staff1	*staff1	*staff1
*I"BASSVS.	*	*	*	*	*	*	*	*	*	*I"TENOR 2dus.	*	*	*	*	*	*	*	*	*	*I"Tenore 1mo	*	*	*	*	*	*	*	*	*	*I"alto.	*	*	*	*	*	*	*	*	*
*I'B.	*	*	*	*	*	*	*	*	*	*I'T. 2	*	*	*	*	*	*	*	*	*	*I'T. 1	*	*	*	*	*	*	*	*	*	*I'A.	*	*	*	*	*	*	*	*	*
*clefF4	*	*	*	*	*	*	*	*	*	*clefC1	*	*	*	*	*	*	*	*	*	*clefC4	*	*	*	*	*	*	*	*	*	*clefC3	*	*	*	*	*	*	*	*	*
*	*	*	*	*	*	*	*	*	*	*ok[f#f#]	*	*	*	*	*	*	*	*	*	*	*	*	*	*	*	*	*	*	*	*	*	*	*	*	*	*	*	*	*
*k[f#]	*	*	*	*	*	*	*	*	*	*k[f#]	*	*	*	*	*	*	*	*	*	*k[f#]	*	*	*	*	*	*	*	*	*	*k[f#]	*	*	*	*	*	*	*	*	*
*G:	*	*	*	*	*	*	*	*	*	*G:	*	*	*	*	*	*	*	*	*	*G:	*	*	*	*	*	*	*	*	*	*G:	*	*	*	*	*	*	*	*	*
*M3/2	*	*	*	*	*	*	*	*	*	*M3/2	*	*	*	*	*	*	*	*	*	*M3/2	*	*	*	*	*	*	*	*	*	*M3/2	*	*	*	*	*	*	*	*	*
=1	=1	=1	=1	=1	=1	=1	=1	=1	=1	=1	=1	=1	=1	=1	=1	=1	=1	=1	=1	=1	=1	=1	=1	=1	=1	=1	=1	=1	=1	=1	=1	=1	=1	=1	=1	=1	=1	=1	=1
!LO:TX:t=P:problem:przed kluczem inicjał M	!	!	!	!	!	!	!	!	!	!LO:TX:t=P:problem:przed kluczem inicjał M	!	!	!	!	!	!	!	!	!	!LO:TX:t=P:problem:przed kluczem inicjał M	!	!	!	!	!	!	!	!	!	!LO:TX:t=P:problem:przed kluczem inicjał M	!	!	!	!	!	!	!	!	!
2E\	Mar-	An-	ſed	Ver-	A-	Lo-	Dum	Bel-	Sit	2b\	Mar-	An-	ſed	Ver-	A-	Lo-	Dum	Bel-	Sit	2G/	Mar-	An-	Sed	Ver-	A-	Lo-	Dum	Bel-	Sit	2e\	Mar-	An-	Sêd	Ver-	A-	Lo-	Du(m)	Bel-	Sit
2E\	-tyr	-nis	e-	-so	-thle-	-ris	mem-	-la-	laus	2ee\	-tyr	-nis	e-	-so	-thle-	-ris	mem-	-la-	laus	2B\	-tyr	-niſ	e-	-so	-thle-	-ris	mem-	-la-	laus	2g\	-tyr	-nis	ei-	-so	-thle-	-ris	mem-	-la-	laus
2D/	De-	pu-	-i(us)	dê-	-ta	re-	-bra	-tor	Pa-	2ff#\	De-	pu-	-i(us)	de-	-ta	re-	-bra	-tor	Pa-	2B\	De-	pu-	-juſ	de-	-ta	re-	-bra	-tor	Pa-	2f#\	De-	pu-	-jus	de-	-ta	re-	-bra	-tor	Pa-
=2	=2	=2	=2	=2	=2	=2	=2	=2	=2	=2	=2	=2	=2	=2	=2	=2	=2	=2	=2	=2	=2	=2	=2	=2	=2	=2	=2	=2	=2	=2	=2	=2	=2	=2	=2	=2	=2	=2	=2
1E	-i	-er	in-	-or-	(Chri-	-vin-	rap-	ò	-tri	1gg	-i	-êr	In-	-or-	(Chri-	-vin-	rap-	o	-tri	1B	-i	-êr	in-	-or-	(Chri-	-vin-	rap-	o	-tri	1e	-i	-er	in-	-or-	Chri-	-vin-	rap-	o	-tri
2C/	Vê-	poſt	-no-	-sum	-st)i	-ct(us)	-tant	For-	sit	2ee\	Ve-	post	-no-	-su(m)	-st)i	-ct(us)	-tant	For-	sit	2A/	Ve-	poſt	-no-	-su(m)	-st)i	-ct(us)	-tant	for-	sit	2e\	Ve-	poſt	-no-	-su(m)	-ſti	-ct(us)	-tant	for-	sit
=3	=3	=3	=3	=3	=3	=3	=3	=3	=3	=3	=3	=3	=3	=3	=3	=3	=3	=3	=3	=3	=3	=3	=3	=3	=3	=3	=3	=3	=3	=3	=3	=3	=3	=3	=3	=3	=3	=3	=3
2.BB/	-nan-	Vin-	-cen-	Ver-	no-	aſ-	Mar-	-tiſ-	Fi-	2.dd#X\	-nan-	Vin-	-cen-	ver-	no-	aſ-	Mar-	-tiſ-	Fi-	2.F#/	-nan-	Vin-	-cen-	Ver-	no-	aſ-	Mar-	-tiſ-	Fi-	2.f#\	-nan-	Vin-	-cen-	ver-	no-	aſ-	Mar-	-tiſ-	Fi-
4BB/	-ti-	-cu-	-ti-	-ti-	-bi-	-pe-	-ty-	-ſi-	-li-	4ee\	-ti-	-cu-	-ti-	-ti-	-bi-	-pe-	-ty-	-ſi-	-li-	4B\	-ti-	-cu-	-ti-	-ti-	-bi-	-pe-	-ty-	-ſi-	-li-	4e\	-ti-	-cu-	-ti-	-ti-	-bi-	-pe-	-ty-	-ſi-	-li-
!	!	!	!	!	!	!	!	!	!	!	!	!	!	!	!	!	!	!	!	!	!	!	!	!	!	!	!	!	!	!LO:TX:a:t=P:problem:# above	!	!	!	!	!	!	!	!	!
2BB/	-(us)	-la	-(ae)	-ce	-lis	-ris	-riſ	-me	-o	2ff#\	-us	-la	-(ae)	-ce	-lis	-ris	-ris,	-me	-o	2B\	-(us)	-la	-(ae)	-ce	-lis	-ris	-ris	-me	-o	2d#X\	-(us)	-la	-(ae)	-ce	-lis	-ris	-ris,	-me	-o
=4	=4	=4	=4	=4	=4	=4	=4	=4	=4	=4	=4	=4	=4	=4	=4	=4	=4	=4	=4	=4	=4	=4	=4	=4	=4	=4	=4	=4	=4	=4	=4	=4	=4	=4	=4	=4	=4	=4	=4
1GG	Lux	poſt	par-	hau-	I-	ê	lan-	qui	Ti-	1b	lux	post	par-	hau-	I-	e	lan-	qui	Ti-	1d	lux	poſt	par-	hau-	i-	è	lan-	qui	Ti-	1g	lux	poſt	par-	hau-	I-	è	Lan-	qui	Ti-
2AA/	êt	Car-	-cit	-ri-	-do-	ru-	-gu-	per-	-bi-	2cc\	et	Car-	-cit	-ri-	-do-	ru-	-gu-	per-	-bi-	2c\	et	Car-	-cit	-ri-	-do-	ru-	-gu-	per-	-bi-	2e\	et	Car-	-cet	-ri-	-do-	ru-	-gu-	per-	-bi-
=5	=5	=5	=5	=5	=5	=5	=5	=5	=5	=5	=5	=5	=5	=5	=5	=5	=5	=5	=5	=5	=5	=5	=5	=5	=5	=5	=5	=5	=5	=5	=5	=5	=5	=5	=5	=5	=5	=5	=5
2BB/	de-	-ce-	Le-	-re	-la	-pe	-ênt	-fi-	-q(ue)	2dd\	de-	-ce-	Le-	-re	-la	-pe	-ent	-fi-	-q(ue)	2B\	de-	-ce-	le-	-re	-la	-pe	-ent	-fi-	-q(ue)	2g\	de-	-ce-	le-	-re	-la	-pe	-ent	-fi-	-q(ue)
2C/	-cus	-res	-o-	fu-	dam-	pr(ae)-	ſi-	-diſ	San-	2ee\	-c(us)	-reſ	-o-	fu-	dam-	pr(ae)-	ſi-	-dis	San-	2G/	-c(us)	-res	-o-	fu-	dam-	pr(ae)-	ſi-	-dis	San-	2e\	-c(us)	-res	-o-	fu-	dam-	pr(ae)-	Si-	-diſ	San-
2C/	Ca-	poſt	-nu(m)	-mu(m)	-nat	-ceps	-ti	Tor-	-cte	2a\	Ca-	poſt	-num	-mum	-nat	-ceps	-ti	tor-	-cte	2A/	Ca-	post	-nu(m)	-mu(m)	-nat	-ceps	-ti	tor-	-cte	2f#\	Ca-	poſt	-num	-mu(m)	-nat	-ceps	-ti	tor-	-cte
=6	=6	=6	=6	=6	=6	=6	=6	=6	=6	=6	=6	=6	=6	=6	=6	=6	=6	=6	=6	=6	=6	=6	=6	=6	=6	=6	=6	=6	=6	=6	=6	=6	=6	=6	=6	=6	=6	=6	=6
2BB/	-mer-	Vêr-	Im-	co-	gen-	vol-	ſa-	-to-	Spi-	2b\	-mêr-	.	im-	co-	gen-	vol-	ſa-	-to-	Spi-	2d\	-mer-	Ver-	im-	co-	gên-	uol-	ſa-	-to-	Spi-	1g	-mer-	ver-	imma-	co-	gen-	Vol-	satel-	-to-	Spi-
2C/	.	.	-mo-	.	.	.	-tel-	.	.	2.a/	-ti-	Ver-	-ma-	.	.	.	-tel-	.	.	2e\	.	.	-ma-	-gi-	.	.	-tel-	.	.	.	.	.	.	.	.	.	.	.	.
4D/	.	.	.	.	.	.	.	.	.	.	.	.	.	.	.	.	.	.	.	2d\	-ti-	-be-	-ni-	.	-ti-	-vi-	-li-	-ri-	-ri-	2f#X\	-ti-	-be-	-ni-	-gi-	-ti-	-ui-	-li-	-ri-	-ri-
4D/	-ti-	-bê-	-ni-	-gi-	-ti-	-ui-	-li-	-ri-	-ri-	4a/	-um	-bê-	-ni-	-gi-	-ti-	-vi-	-li-	-ri-	-ri-	.	.	.	.	.	.	.	.	.	.	.	.	.	.	.	.	.	.	.	.
=7	=7	=7	=7	=7	=7	=7	=7	=7	=7	=7	=7	=7	=7	=7	=7	=7	=7	=7	=7	=7	=7	=7	=7	=7	=7	=7	=7	=7	=7	=7	=7	=7	=7	=7	=7	=7	=7	=7	=7
1.GG	-um	-ra	-taſ	-t(ur)	-u(m)	-t(ur)	-teſ	-b(us)	-tus	1.gn;	.	-ra	-taſ	-t(ur)	-u(m)	-t(ur)	-teſ	-b(us)	-tus	1.d	-u(m)	-ra	-tas	-tur	-u(m)	-t(ur)	-teſ	-b(us)	-tus	1.g	-u(m)	-ra	-taſ	-tur	-u(m)	-tur	-teſ	-b(us)	-tus,
=8	=8	=8	=8	=8	=8	=8	=8	=8	=8	=8	=8	=8	=8	=8	=8	=8	=8	=8	=8	=8	=8	=8	=8	=8	=8	=8	=8	=8	=8	=8	=8	=8	=8	=8	=8	=8	=8	=8	=8
2G\	Tor-	lon-	pê-	Coſ-	De-	Spi-	Si-	è	Da	2dd\	Tor-	long-	pe-	coſ-	Dei-	ſpi-	Si-	è	da	2B\	tor-	long-	pe-	Coſ-	Dei-	ſpi-	Si-	è	da	2b\	tor-	lon-	pe-	coſ-	De-	ſpi-	Si-	e	da
2G\	-to-	-ga	-des-	-tas	-i	-ne-	-gno	Cau-	per	2ee\	-to-	-a	-deſ-	-tas	-q(ue)	-ne-	-gno	cau-	per	2c\	-to-	-a	-des-	-tas	-q(ue)	-ne-	-gno	cau-	per	2a\	-to-	-ga	-des-	-tas	-i-	-ne-	-gno	cau-	per
2G\	-re	fa-	-q(ue)	V-	a-	-ta	Cru-	-te	pre-	2ff#\	-re	fa-	-q(ue)	u-	a-	-ta	Cru-	-te	pre-	2d#X\	-re	fa-	-q(ue)	v-	a-	-ta	Cru-	-te	pre-	2a\	-re	fa-	-q(ue)	u-	-q(ue)	-ta	Cru-	-te	pre-
!LO:LB:g=original	!	!	!	!	!	!	!	!	!	!	!	!	!	!	!	!	!	!	!	!LO:LB:g=original	!	!	!	!	!	!	!	!	!	!	!	!	!	!	!	!	!	!	!
=9	=9	=9	=9	=9	=9	=9	=9	=9	=9	=9	=9	=9	=9	=9	=9	=9	=9	=9	=9	=9	=9	=9	=9	=9	=9	=9	=9	=9	=9	=9	=9	=9	=9	=9	=9	=9	=9	=9	=9
1E	vi-	-me	lam-	-trim-	-mo-	Vul-	-cis	pr(ae)-	-ces	1gg	Vi-	-me	lam-	-trim-	-mo-	Vul-	-cis	pr(ae)-	-ces	1e	Vi-	-me	lam-	-trim-	-mo-	Vul-	-cis	pr(ae)-	-ces	1g	Vi-	-me	lam-	-trim-	amo-	vul-	-cis	pr(ae)-	-ces
2F#\	-cto	fre-	-bunt	-q(ue)	-re	-tu(m)	Ve-	-bes	ve-	2ff#\	-cto	fre-	-bunt	-q(ue)	-re	-tum	Ve-	-bes	ve-	2d\	-cto	fre-	-bunt	-q(ue)	-re	-tum	Ve-	-bes	Ve-	2a\	-cto	fre-	-bunt	-q(ue)	-re	-tu(m)	Ve-	-bes	Ve-
!	!	!	!	!	!	!	!	!	!	!LO:LB:g=original	!	!	!	!	!	!	!	!	!	!	!	!	!	!	!	!	!	!	!	!LO:LB:g=original	!	!	!	!	!	!	!	!	!
=10	=10	=10	=10	=10	=10	=10	=10	=10	=10	=10	=10	=10	=10	=10	=10	=10	=10	=10	=10	=10	=10	=10	=10	=10	=10	=10	=10	=10	=10	=10	=10	=10	=10	=10	=10	=10	=10	=10	=10
2.A\	ſ(ae)-	-men-	Mar-	et	ſau-	lan-	-nan-	po-	-nan-	2.ee\	ſ(ae)-	-men-	Mar-	et	ſau-	lan-	-nan-	po-	-nan-	2.c\	ſe-	-men-	Mar-	et	ſau-	lan-	-nan-	po-	-nan-	2.a\	ſ(ae)-	-men-	mar-	et	ſau-	lan-	-nan-	po-	-nan-
4A\	-cu-	-ti-	-ty-	Viſ-	-ci-	-ci-	-ti-	-cu-	-ti-	4ee\	-cu-	-ti-	-ty-	viſ-	-ci-	-ci-	-ti-	-cu-	-ti-	4c\	-cu-	-ti-	-ty-	Viſ-	-ci-	-ci-	-ti-	-cu-	-ti-	4a\	-cu-	-ti-	-ty-	Viſ-	-ci-	-ci-	-ti-	-cu-	-ti-
2A\	-li,	-b(us)	-ris	-ce-	-(us)	-nant,	-(us)	-lu(m)	-j	2ee\	-li,	-b(us)	-ris	-cê-	-(us)	-nant	-(us)	-lum	-j	2c\	-li	-b(us)	-ris	-ce-	-(us)	-nant	-(us)	-lu(m)	-j	2a\	-li	-b(us)	-ris	-ce-	-i(us)	-nant	-(us)	-lu(m),	-j
=11	=11	=11	=11	=11	=11	=11	=11	=11	=11	=11	=11	=11	=11	=11	=11	=11	=11	=11	=11	=11	=11	=11	=11	=11	=11	=11	=11	=11	=11	=11	=11	=11	=11	=11	=11	=11	=11	=11	=11
2D/	l(ae)-	Ci-	I-	-ra	Vi-	per	è	nos	Be-	2ff#\	l(ae)-	ci-	I-	-ra	Vi-	per	e	nos	be-	2A/	l(ae)-	Ci-	I-	-ra.	Vi-	per	è	nos	be-	2f#\	l(ae)-	cib-	i-	-ra	Vi-	per	è	nos	be-
2.E\	-t(us)	-b(us)	-r(ae)	Suc-	-t(ae)	ſa-	ru-	ro-	-a-	2.b\	-t(us)	-b(us)	-r(ae)	Suc-	-t(ae)	ſa-	ru-	ro-	-a-	2.G#X/	-t(us)	-b(us)	-r(ae)	Suc-	-t(ae)	ſa-	ru-	ro-	-a-	2.e\	-t(us)	-(us)	-r(ae)	Suc-	-t(ae)	ſa-	ru-	ro-	-a-
4E\	tri-	da-	fa-	-cen-	pe-	-xa	-pe	-re	-ta	4b\	tri-	da-	fa-	-cen-	p(ae)-	-xa	-pe	-re	-ta	4G#/	tri-	da-	fa-	-cên-	pe-	-xa	-pe	-re	-ta	4e\	tri-	da-	fa-	-cen-	pe-	-xa	-pe	-re	-ta
=12	=12	=12	=12	=12	=12	=12	=12	=12	=12	=12	=12	=12	=12	=12	=12	=12	=12	=12	=12	=12	=12	=12	=12	=12	=12	=12	=12	=12	=12	=12	=12	=12	=12	=12	=12	=12	=12	=12	=12
1C#X	-um-	-t(ur)	-mis-	-ſa	-ri-	Cor-	fon-	gra-	no-	1ee	-um-	-t(ur)	-mis-	-ſa	-ri-	cor-	fon-	gra-	no-	1c#X	-um-	-t(ur)	-mis-	-ſa	-ri-	Cor-	fon-	gra-	no-	1e	-um-	-tur	-mis-	-sa	-ri-	cor-	fon-	gra-	no-
2D/	-phu(m)	le-	-q(ue)	lam-	-cla	-pus	-tes	-ti-	-bis	2dd\	-phum	Le-	-q(ue)	Lam-	-cla	-p(us)	-tês	-ti-	-bis	2B\	-phu(m)	Le-	-q(ue)	lam-	-cla	-p(us)	-tes	-ti-	-bis	2f#\	-phu(m)	Le-	-q(ue)	lam-	-cla	-pus	-tes	-ti-	-bis
=13	=13	=13	=13	=13	=13	=13	=13	=13	=13	=13	=13	=13	=13	=13	=13	=13	=13	=13	=13	=13	=13	=13	=13	=13	=13	=13	=13	=13	=13	=13	=13	=13	=13	=13	=13	=13	=13	=13	=13
2E\	con-	-o-	im-	-pas	de-	ſcin-	e-	-(ae)	gau-	1cc	Con-	-o-	im_me-	pas_u-	de-	ſcin-	e-	(ae) ir-	gau-	1A	Con-	-o-	im_me-	pas u-	de-	ſcin-	e-	(ae) ir-	gau-	2g\	.	-o-	im-	-pas	de-	ſcin-	e-	-(ae)	gau-
2.F#\	-ci-	.	-me-	u-	.	.	.	ir-	.	.	.	.	.	.	.	.	.	.	.	.	.	.	.	.	.	.	.	.	.	2.f#\	Con-	.	-me-	u-	.	.	.	ir-	.
!	!	!	!	!	!	!	!	!	!	!	!	!	!	!	!	!	!	!	!	!LO:TX:a:t=P:problem:# above	!	!	!	!	!	!	!	!	!	!	!	!	!	!	!	!	!	!	!
.	.	.	.	.	.	.	.	.	.	2cc\	-ci-	-ni-	-mo-	-ſtu-	-ſpi-	-di-	-li-	-ri-	-di-	2A#X/	-ci-	-ni-	-mo-	-ſtu-	-ſpi-	-di-	-li-	-ri-	-di-	.	.	.	.	.	.	.	.	.	.
4F#\	-nit	-ni-	-mo-	-stu-	-ſpi-	-di-	-li-	-ri-	-di-	.	.	.	.	.	.	.	.	.	.	.	.	.	.	.	.	.	.	.	.	4f#\	-ci-	-ni-	-mo-	-ſtu-	-ſpi-	-di-	-li-	-ri-	-di-
=14	=14	=14	=14	=14	=14	=14	=14	=14	=14	=14	=14	=14	=14	=14	=14	=14	=14	=14	=14	=14	=14	=14	=14	=14	=14	=14	=14	=14	=14	=14	=14	=14	=14	=14	=14	=14	=14	=14	=14
1.BB	.	-b(us)	-res	-lat	-cit	-t(ur)	-cit	-ga	-a	1.b,	-nit.	-b(us)	-rês.	-lat.	-cit	-t(ur)	-cit	-ga	-a	1.B	-nit	-b(us)	-res	-lat.	-cit	-t(ur)	-cit.	-ga	-a	1.f#	-nit	-b(us)	-res	-lat	-cit	-t(ur)	-cit	-ga	-a,
=15	=15	=15	=15	=15	=15	=15	=15	=15	=15	=15	=15	=15	=15	=15	=15	=15	=15	=15	=15	=15	=15	=15	=15	=15	=15	=15	=15	=15	=15	=15	=15	=15	=15	=15	=15	=15	=15	=15	=15
*	*ij	*ij	*ij	*ij	*ij	*ij	*	*ij	*	*	*ij	*ij	*ij	*	*	*	*	*	*	*	*ij	*ij	*ij	*ij	*ij	*ij	*ij	*ij	*	*	*ij	*	*ij	*ij	*	*ij	*ij	*	*
!!LO:TX:t=P:problem:braki znaków repetycji tekstu
2GG#X/	l(ae)-	Ci-	I-	Suc-	Vi-	per	.	nos	be-	2b\	l(ae)-	ci-	I-	.	.	.	.	.	be-	2B\	l(ae)-	Ci-	I-	Suc-	Vi-	per	e	nos	be-	2e\	l(ae)-	ci-	i-	Suc-	Vi-	per	e	.	be-
2.AA/	-t(us)	-b(us)	-r(ae)	-cen-	-t(ae)	ſa-	.	ro-	-a-	2.e/	-t(us)	-b(us)	-r(ae)	.	.	.	.	.	-a-	2.A/	-t(us)	-b(us)	-r(ae)	-cen-	-t(ae)	ſa-	ru-	ro-	-a-	2.c#X/	-t(us)	-b(us)	-r(ae)	-cen-	-t(ae)	ſa-	ru-	.	-a-
4AA/	tri-	da-	fa-	-ſa	pe-	-xa	.	-re	-ta	4e/	tri-	da-	fa-	.	.	.	.	.	-ta	4A/	tri-	da-	fa-	-ſa	pe-	-xa	-pe	-re	-ta	4c#/	tri-	da-	fa-	-sa	pe-	-xa	-pe	.	-ta
=16	=16	=16	=16	=16	=16	=16	=16	=16	=16	=16	=16	=16	=16	=16	=16	=16	=16	=16	=16	=16	=16	=16	=16	=16	=16	=16	=16	=16	=16	=16	=16	=16	=16	=16	=16	=16	=16	=16	=16
1FF#X	-um-	-t(ur)	-mis-	lam-	-ri-	Cor-	.	gra-	no-	1a	-um-	-t(ur)	-mis-	.	.	.	.	.	no-	1A	-um-	-t(ur)	-mis-	lam-	-ri-	Cor-	fon-	gra-	no-	1f#	-um-	-t(ur)	-mis-	lam-	-ri-	cor-	fon-	.	no-
2GG/	-phu(m)	Le-	-q(ue)	-pas	-cla	-pus	.	-ti-	-bis	2g/	-phu(m)	Le-	-q(ue)	.	.	.	.	.	-bis	2B\	-phu(m)	Le-	-q(ue)	-pas	-cla	-p(us)	-tes	-ti-	-bis	2e\	-phu(m)	le-	-q(ue)	-pas	-cla	-pus	-tes	.	-bis
=17	=17	=17	=17	=17	=17	=17	=17	=17	=17	=17	=17	=17	=17	=17	=17	=17	=17	=17	=17	=17	=17	=17	=17	=17	=17	=17	=17	=17	=17	=17	=17	=17	=17	=17	=17	=17	=17	=17	=17
2AA/	con-	-o-	im-	u-	de-	ſcin-	.	-(ae)	gau-	1f#X	Con-	-o-	im_me-	.	.	.	.	.	gau-	2c\	.	-o-	im-	u-	de-	ſcin-	e-	-(ae)	gau-	1e	Con-	-o-	im_me-	u-	de-	ſcin-	e-	.	gau-
2.BB/	-ci-	.	-me-	.	.	.	.	ir-	.	.	.	.	.	.	.	.	.	.	.	2.B\	Con-	.	-me-	.	.	.	.	ir-	.	.	.	.	.	.	.	.	.	.	.
.	.	.	.	.	.	.	.	.	.	2f#/	-ci-	-ni-	-mo-	.	.	.	.	.	-di-	.	.	.	.	.	.	.	.	.	.	2d#X\	-ci-	-ni-	-mo-	-ſtu-	-ſpi-	-di-	-li-	.	-di-
4BB/	-nit	-ni-	-mo-	-ſtu-	-ſpi-	-di-	.	-ri-	-di-	.	.	.	.	.	.	.	.	.	.	4B\	-ci-	-ni-	-mo-	-ſtu-	-ſpi-	-di-	-li-	-ri-	-di-	.	.	.	.	.	.	.	.	.	.
=18	=18	=18	=18	=18	=18	=18	=18	=18	=18	=18	=18	=18	=18	=18	=18	=18	=18	=18	=18	=18	=18	=18	=18	=18	=18	=18	=18	=18	=18	=18	=18	=18	=18	=18	=18	=18	=18	=18	=18
1.E;	.	-b(us)	-res	-lat	-cit	-t(ur)	.	-ga	-a.	1.e	-nit.	-b(us)	-res.	.	.	.	.	.	-a	1.B	-nit	-b(us)	-res	-lat	-cit	-t(ur)	-cit.	-ga	-a.	1.e	-nit	-b(us)	-res	-lat	-cit	-t(ur)	-cit	.	-a.
*	*	*Xij	*Xij	*Xij	*Xij	*Xij	*	*Xij	*	*	*Xij	*Xij	*Xij	*	*	*	*	*	*	*	*Xij	*Xij	*Xij	*Xij	*Xij	*Xij	*Xij	*Xij	*	*	*Xij	*	*Xij	*Xij	*	*Xij	*Xij	*	*
!LO:LB:g=original	!	!	!	!	!	!	!	!	!	!	!	!	!	!	!	!	!	!	!	!LO:LB:g=original	!	!	!	!	!	!	!	!	!	!	!	!	!	!	!	!	!	!	!
=19||	=19||	=19||	=19||	=19||	=19||	=19||	=19||	=19||	=19||	=19||	=19||	=19||	=19||	=19||	=19||	=19||	=19||	=19||	=19||	=19||	=19||	=19||	=19||	=19||	=19||	=19||	=19||	=19||	=19||	=19||	=19||	=19||	=19||	=19||	=19||	=19||	=19||	=19||	=19||
*M	*	*	*	*	*	*	*	*	*	*	*	*	*	*	*	*	*	*	*	*M	*	*	*	*	*	*	*	*	*	*M3/2	*	*	*	*	*	*	*	*	*
!	!	!	!	!	!	!	!	!	!	!	!	!	!	!	!	!	!	!	!	!	!	!	!	!	!	!	!	!	!	!LO:TX:t=P:problem:Amen jest dość awangardowe brzmieniowo, ale spędziłem nad tymi dziewięcioma taktami kilka godzin i nic lepszego nie wymyśliłem.	!	!	!	!	!	!	!	!	!
!	!	!	!	!	!	!	!	!	!	!	!	!	!	!	!	!	!	!	!	!LO:TX:t=P:problem:obie nuty skreślone	!	!	!	!	!	!	!	!	!	!LO:TX:t=P:problem:przed znakiem metrum dwie skreślone nuty,\npod nutami skreślone słowo "amen"	!	!	!	!	!	!	!	!	!
!	!	!	!	!	!	!	!	!	!	!	!	!	!	!	!	!	!	!	!	!LO:TX:a:t=Vi	!	!	!	!	!	!	!	!	!	!	!	!	!	!	!	!	!	!	!
2.E\	A-	.	.	.	.	.	.	.	.	1.e	a-	.	.	.	.	.	.	.	.	1B	A-	.	.	.	A-	.	.	.	.	2e\	.	.	.	.	.	.	.	.	.
.	.	.	.	.	.	.	.	.	.	.	.	.	.	.	.	.	.	.	.	.	.	.	.	.	.	.	.	.	.	(2e\	.	.	.	.	.	.	.	.	.
4F#\	.	.	.	.	.	.	.	.	.	.	.	.	.	.	.	.	.	.	.	.	.	.	.	.	.	.	.	.	.	.	.	.	.	.	.	.	.	.	.
2G\	.	.	.	.	.	.	.	.	.	.	.	.	.	.	.	.	.	.	.	2B\	-men	.	.	.	-men	.	.	.	.	2d\)	a	.	.	.	.	.	.	.	.
!	!	!	!	!	!	!	!	!	!	!	!	!	!	!	!	!	!	!	!	!	!	!	!	!	!	!	!	!	!	!LO:LB:g=original	!	!	!	!	!	!	!	!	!
=20	=20	=20	=20	=20	=20	=20	=20	=20	=20	=20-	=20	=20	=20	=20	=20	=20	=20	=20	=20	=20-	=20	=20	=20	=20	=20	=20	=20	=20	=20	=20	=20	=20	=20	=20	=20	=20	=20	=20	=20
!	!	!	!	!	!	!	!	!	!	!	!	!	!	!	!	!	!	!	!	!LO:TX:t=P:problem:od t. 20 partia zapisana u dołu strony, z odsyłaczem vide	!	!	!	!	!	!	!	!	!	!LO:TX:t=P:problem:od t. 20 partia zapisana u dołu strony	!	!	!	!	!	!	!	!	!
2D#X/	.	.	.	.	.	.	.	.	.	2e/	.	.	.	.	.	.	.	.	.	2.B\	a-	.	.	.	.	.	.	.	.	2f#\	A-	.	.	.	.	.	.	.	.
2E\	.	.	.	.	.	.	.	.	.	2g/	.	.	.	.	.	.	.	.	.	.	.	.	.	.	.	.	.	.	.	2g\	.	.	.	.	.	.	.	.	.
!	!	!	!	!	!	!	!	!	!	!	!	!	!	!	!	!	!	!	!	!LO:TX:a:t=P:problem:# above	!	!	!	!	!	!	!	!	!	!	!	!	!	!	!	!	!	!	!
.	.	.	.	.	.	.	.	.	.	.	.	.	.	.	.	.	.	.	.	4c#X\	.	.	.	.	.	.	.	.	.	.	.	.	.	.	.	.	.	.	.
!	!	!	!	!	!	!	!	!	!	!	!	!	!	!	!	!	!	!	!	!LO:TX:a:t=P:problem:# above	!	!	!	!	!	!	!	!	!	!	!	!	!	!	!	!	!	!	!
2BB/	-men	.	.	.	.	.	.	.	.	2g/	-men	.	.	.	.	.	.	.	.	2d#X\	.	.	.	.	.	.	.	.	.	2f#\	-men	.	.	.	.	.	.	.	.
=21	=21	=21	=21	=21	=21	=21	=21	=21	=21	=21	=21	=21	=21	=21	=21	=21	=21	=21	=21	=21-	=21	=21	=21	=21	=21	=21	=21	=21	=21	=21	=21	=21	=21	=21	=21	=21	=21	=21	=21
*	*	*	*	*	*	*	*	*	*	*	*ij	*	*	*	*	*	*	*	*	*	*	*	*	*	*	*	*	*	*	*	*ij	*	*	*	*	*	*	*	*
!	!	!	!	!	!	!	!	!	!	!	!	!	!	!	!	!	!	!	!	!LO:TX:a:t=P:problem:# above	!	!	!	!	!	!	!	!	!	!	!	!	!	!	!	!	!	!	!
2.C/	A-	.	.	.	.	.	.	.	.	1b	a-	.	.	.	.	.	.	.	.	1c#X	.	.	.	.	.	.	.	.	.	1e	A-	.	.	.	.	.	.	.	.
*	*Xij	*	*	*	*	*	*	*	*	*	*	*	*	*	*	*	*	*	*	*	*	*	*	*	*	*	*	*	*	*	*	*	*	*	*	*	*	*	*
4D/	.	.	.	.	.	.	.	.	.	.	.	.	.	.	.	.	.	.	.	.	.	.	.	.	.	.	.	.	.	.	.	.	.	.	.	.	.	.	.
2E\	.	.	.	.	.	.	.	.	.	2a\	-men	.	.	.	.	.	.	.	.	2B\	-men	.	.	.	.	.	.	.	.	2e\	-men	.	.	.	.	.	.	.	.
!	!	!	!	!	!	!	!	!	!	!LO:LB:g=original	!	!	!	!	!	!	!	!	!	!	!	!	!	!	!	!	!	!	!	!	!	!	!	!	!	!	!	!	!
=22	=22	=22	=22	=22	=22	=22	=22	=22	=22	=22	=22	=22	=22	=22	=22	=22	=22	=22	=22	=22-	=22	=22	=22	=22	=22	=22	=22	=22	=22	=22	=22	=22	=22	=22	=22	=22	=22	=22	=22
*	*	*	*	*	*	*	*	*	*	*	*Xij	*	*	*	*	*	*	*	*	*	*ij	*	*	*	*	*	*	*	*	*	*	*	*	*	*	*	*	*	*
!	!	!	!	!	!	!	!	!	!	!LO:TX:t=P:problem:od t. 22 partia zapisana u dołu strony	!	!	!	!	!	!	!	!	!	!	!	!	!	!	!	!	!	!	!	!	!	!	!	!	!	!	!	!	!
2BB/	.	.	.	.	.	.	.	.	.	[2g/	a-	.	.	.	.	.	.	.	.	2B\	a-	.	.	.	.	.	.	.	.	2d#X\	A-	.	.	.	.	.	.	.	.
2C/	.	.	.	.	.	.	.	.	.	2.g/]	.	.	.	.	.	.	.	.	.	2D/	.	.	.	.	.	.	.	.	.	1d#	-men	.	.	.	.	.	.	.	.
2GG#X/	.	.	.	.	.	.	.	.	.	.	.	.	.	.	.	.	.	.	.	2B\	-men	.	.	.	.	.	.	.	.	.	.	.	.	.	.	.	.	.	.
.	.	.	.	.	.	.	.	.	.	4a\	-men	.	.	.	.	.	.	.	.	.	.	.	.	.	.	.	.	.	.	.	.	.	.	.	.	.	.	.	.
=23	=23	=23	=23	=23	=23	=23	=23	=23	=23	=23	=23	=23	=23	=23	=23	=23	=23	=23	=23	=23-	=23	=23	=23	=23	=23	=23	=23	=23	=23	=23	=23	=23	=23	=23	=23	=23	=23	=23	=23
2.AA/	.	.	.	.	.	.	.	.	.	2b\	.	.	.	.	.	.	.	.	.	1c	a-	.	.	.	.	.	.	.	.	1e	A-	.	.	.	.	.	.	.	.
.	.	.	.	.	.	.	.	.	.	1a	.	.	.	.	.	.	.	.	.	.	.	.	.	.	.	.	.	.	.	.	.	.	.	.	.	.	.	.	.
4BB/	.	.	.	.	.	.	.	.	.	.	.	.	.	.	.	.	.	.	.	.	.	.	.	.	.	.	.	.	.	.	.	.	.	.	.	.	.	.	.
2C/	.	.	.	.	.	.	.	.	.	.	.	.	.	.	.	.	.	.	.	2c\	-men	.	.	.	.	.	.	.	.	2e\	-men	.	.	.	.	.	.	.	.
!LO:LB:g=original	!	!	!	!	!	!	!	!	!	!	!	!	!	!	!	!	!	!	!	!	!	!	!	!	!	!	!	!	!	!	!	!	!	!	!	!	!	!	!
=24	=24	=24	=24	=24	=24	=24	=24	=24	=24	=24	=24	=24	=24	=24	=24	=24	=24	=24	=24	=24-	=24	=24	=24	=24	=24	=24	=24	=24	=24	=24	=24	=24	=24	=24	=24	=24	=24	=24	=24
*	*	*	*	*	*	*	*	*	*	*	*ij	*	*	*	*	*	*	*	*	*	*	*	*	*	*	*	*	*	*	*	*	*	*	*	*	*	*	*	*
!LO:TX:t=P:problem:od t. 24 partia zapisana u dołu strony	!	!	!	!	!	!	!	!	!	!	!	!	!	!	!	!	!	!	!	!	!	!	!	!	!	!	!	!	!	!	!	!	!	!	!	!	!	!	!
2AA/	.	.	.	.	.	.	.	.	.	2g/	a-	.	.	.	.	.	.	.	.	1c	e-	.	.	.	.	.	.	.	.	1e	A-	.	.	.	.	.	.	.	.
1BB	.	.	.	.	.	.	.	.	.	1f#	-men	.	.	.	.	.	.	.	.	.	.	.	.	.	.	.	.	.	.	.	.	.	.	.	.	.	.	.	.
.	.	.	.	.	.	.	.	.	.	.	.	.	.	.	.	.	.	.	.	2B\	.	.	.	.	.	.	.	.	.	2d\	.	.	.	.	.	.	.	.	.
=25	=25	=25	=25	=25	=25	=25	=25	=25	=25	=25	=25	=25	=25	=25	=25	=25	=25	=25	=25	=25-	=25	=25	=25	=25	=25	=25	=25	=25	=25	=25	=25	=25	=25	=25	=25	=25	=25	=25	=25
2E\	-men	.	.	.	.	.	.	.	.	2e/	.	.	.	.	.	.	.	.	.	2B\	-men	.	.	.	.	.	.	.	.	2e\	-men	.	.	.	.	.	.	.	.
*	*	*	*	*	*	*	*	*	*	*	*	*	*	*	*	*	*	*	*	*	*	*	*	*	*	*	*	*	*	*	*Xij	*	*	*	*	*	*	*	*
2E\	.	.	.	.	.	.	.	.	.	2ee\	a-	.	.	.	.	.	.	.	.	2B\	a-	.	.	.	.	.	.	.	.	2g#X\	a-	.	.	.	.	.	.	.	.
*	*	*	*	*	*	*	*	*	*	*	*	*	*	*	*	*	*	*	*	*	*Xij	*	*	*	*	*	*	*	*	*	*	*	*	*	*	*	*	*	*
2GG#X/	.	.	.	.	.	.	.	.	.	2ee\	-men	.	.	.	.	.	.	.	.	2G/	.	.	.	.	.	.	.	.	.	2g#\	-men	.	.	.	.	.	.	.	.
*	*	*	*	*	*	*	*	*	*	*	*Xij	*	*	*	*	*	*	*	*	*	*	*	*	*	*	*	*	*	*	*	*	*	*	*	*	*	*	*	*
=26	=26	=26	=26	=26	=26	=26	=26	=26	=26	=26	=26	=26	=26	=26	=26	=26	=26	=26	=26	=26-	=26	=26	=26	=26	=26	=26	=26	=26	=26	=26	=26	=26	=26	=26	=26	=26	=26	=26	=26
*	*	*	*	*	*	*	*	*	*	*	*	*	*	*	*	*	*	*	*	*	*	*	*	*	*	*	*	*	*	*	*ij	*	*	*	*	*	*	*	*
1.AA	.	.	.	.	.	.	.	.	.	1.cc	A-	.	.	.	.	.	.	.	.	2B\	.	.	.	.	.	.	.	.	.	1.e	a-	.	.	.	.	.	.	.	.
.	.	.	.	.	.	.	.	.	.	.	.	.	.	.	.	.	.	.	.	4A/	.	.	.	.	.	.	.	.	.	.	.	.	.	.	.	.	.	.	.
.	.	.	.	.	.	.	.	.	.	.	.	.	.	.	.	.	.	.	.	4G/	.	.	.	.	.	.	.	.	.	.	.	.	.	.	.	.	.	.	.
.	.	.	.	.	.	.	.	.	.	.	.	.	.	.	.	.	.	.	.	2A/	.	.	.	.	.	.	.	.	.	.	.	.	.	.	.	.	.	.	.
=27-	=27	=27	=27	=27	=27	=27	=27	=27	=27	=27	=27	=27	=27	=27	=27	=27	=27	=27	=27	=27-	=27	=27	=27	=27	=27	=27	=27	=27	=27	=27	=27	=27	=27	=27	=27	=27	=27	=27	=27
0.E;;	.	.	.	.	.	.	.	.	.	0.b;	-men	.	.	.	.	.	.	.	.	2A/	.	.	.	.	.	.	.	.	.	0.e;	-men.	.	.	.	.	.	.	.	.
*	*	*	*	*	*	*	*	*	*	*	*	*	*	*	*	*	*	*	*	*	*	*	*	*	*	*	*	*	*	*	*Xij	*	*	*	*	*	*	*	*
.	.	.	.	.	.	.	.	.	.	.	.	.	.	.	.	.	.	.	.	2.G#X/	.	.	.	.	.	.	.	.	.	.	.	.	.	.	.	.	.	.	.
.	.	.	.	.	.	.	.	.	.	.	.	.	.	.	.	.	.	.	.	4F#/	-men	.	.	.	.	.	.	.	.	.	.	.	.	.	.	.	.	.	.
=28-	=28	=28	=28	=28	=28	=28	=28	=28	=28	=28-	=28	=28	=28	=28	=28	=28	=28	=28	=28	=28-	=28	=28	=28	=28	=28	=28	=28	=28	=28	=28	=28	=28	=28	=28	=28	=28	=28	=28	=28
.	.	.	.	.	.	.	.	.	.	.	.	.	.	.	.	.	.	.	.	1.E;	.	.	.	.	.	.	.	.	.	.	.	.	.	.	.	.	.	.	.
!LO:PB:g=original	!	!	!	!	!	!	!	!	!	!LO:PB:g=original	!	!	!	!	!	!	!	!	!	!LO:PB:g=original	!	!	!	!	!	!	!	!	!	!LO:PB:g=original	!	!	!	!	!	!	!	!	!
==	==	==	==	==	==	==	==	==	==	==	==	==	==	==	==	==	==	==	==	==	==	==	==	==	==	==	==	==	==	==	==	==	==	==	==	==	==	==	==
*-	*-	*-	*-	*-	*-	*-	*-	*-	*-	*-	*-	*-	*-	*-	*-	*-	*-	*-	*-	*-	*-	*-	*-	*-	*-	*-	*-	*-	*-	*-	*-	*-	*-	*-	*-	*-	*-	*-	*-
!!!system-decoration: [(s1,s2,s3,s4)]
!!!ENC: Marta Chmielewska
!!!END: 2021-04-03
!!!ENC: Mateusz Solarz
!!!END: 2021-03-24
